material/.icons/material/tray-plus.svg

<svg xmlns="http://www.w3.org/2000/svg" viewBox="0 0 24 24"><path d="M2 12h2v5h16v-5h2v5a2 2 0 01-2 2H4a2 2 0 01-2-2m9-12h2v3h3v2h-3v3h-2v-3H8V8h3z"/></svg>

<?xml version="1.0" encoding="UTF-8"?><!DOCTYPE svg PUBLIC "-//W3C//DTD SVG 1.1//EN" "http://www.w3.org/Graphics/SVG/1.1/DTD/svg11.dtd"><svg xmlns="http://www.w3.org/2000/svg" xmlns:xlink="http://www.w3.org/1999/xlink" version="1.1" id="mdi-tray-plus" width="24" height="24" viewBox="0 0 24 24"><path d="M2 12H4V17H20V12H22V17A2 2 0 0 1 20 19H4A2 2 0 0 1 2 17M11 5H13V8H16V10H13V13H11V10H8V8H11Z" /></svg>
